svg/white/ten.svg

<svg height="32" viewBox="0 0 32 32" width="32" xmlns="http://www.w3.org/2000/svg"><path d="m26.9983527 16.2054398c.0010983-.068251.0016475-.136731.0016475-.2054398 0-3.0398472-1.0749608-5.6347289-3.2249171-7.78478368-2.143483-2.14347755-4.7352903-3.21521632-7.7751105-3.21521632-3.0398894 0-5.6347431 1.07173877-7.78480324 3.21521632-2.14348293 2.15005478-3.2152244 4.74493648-3.2152244 7.78478368 0 .1272911.00187929.2537965.00563785.3795164-.00378321-.1257277-.00563785-.252227-.00563785-.3795164 0-.2863163.00979661-.5688939.02932058-.8476637.04157498.0018001.08211146.0066465.12178251.014643l4.69125749-8.13548738c-.03215917-.03721315-.0597489-.07612253-.08276919-.11693583.47307555-.33235672.96508655-.62140772 1.47603305-.8671876.0270359.04462116.0496754.09170013.0682301.14130612h9.3923116c.0184508-.04919059.0411249-.09626955.0683339-.14130612.5107388.24671454 1.0028537.53739253 1.4761715.87203396-.0223279.03679775-.0483253.07248776-.0780612.10724311l4.6864457 8.14033374c.0399134-.0079965.0806922-.0128429.1218171-.014643.0194894.2788737.0291821.5613474.0291821.8476637 0 .0687153-.000529.1372003-.0015925.2054622zm-.0283585.6617146c-.0414257-.0019275-.0817233-.0068316-.1210971-.0146444l-4.6913267 8.1257947c.0287256.0330862.0545793.0671068.0779763.1021653.5365831-.3790017 1.0497631-.8141279 1.5395364-1.3053791 1.9425717-1.9367178 3.0075335-4.2394399 3.1949111-6.9079365zm-4.7512691 8.225203c-.0350004.0246122-.0700988.0489858-.1052955.0731209.0351931-.024142.0702869-.0485222.1052814-.0731406zm-.1056342.0733531c-.4359763.2989327-.8870367.5612607-1.3536308.7868518-.0252011-.0420595-.0462482-.0859884-.0633836-.1315096h-9.3923116c-.0172393.0460405-.038321.0900386-.0632798.1315096-.2550849-.1223872-.5055623-.2557958-.7514453-.4002303 1.6372583.9651155 3.474222 1.447668 5.5109328 1.447668 2.2925756 0 4.3303262-.6114248 6.1131181-1.8342894zm-12.34835946-.0809728c.02244698-.0372562.04831616-.0726322.07753948-.1065023l-4.69122287-8.1257254c-.03930969.007924-.07971659.0127277-.12118657.0146502.18681725 2.6684941 1.24858655 4.9712143 3.18530788 6.9079307.49312109.4930961 1.00964123.9296449 1.54956208 1.3096468zm6.23526856 6.9152623c-8.836556 0-16-7.163444-16-16s7.163444-16 16-16 16 7.163444 16 16-7.163444 16-16 16zm10.3470895-16.5407158-4.549951-7.88707652v7.62883462c.1139937.0425441.2178792.1107394.3117258.204655.0939851.0938118.1621806.1978355.2047248.3117251h3.877724c.0343747-.0923233.0863001-.1783116.1557764-.2581382zm-.1558456.8427481h-3.8776548c-.0425442.1139934-.1107397.2179133-.2047248.3118982-.0938466.0938463-.1977321.1621801-.3117258.2045858v7.6190034l4.5499856-7.8773146c-.0695109-.0798958-.1214363-.1658842-.1558802-.2581728zm-20.38254261-.5846099h3.87775864c.04254426-.1138896.11067046-.2178787.2045863-.3117251.09391585-.0939156.19780137-.1621455.31179507-.204655v-7.62883462l-4.55008947 7.88707652c.0695455.0798266.12150557.1659188.15594946.2581382zm5.48537081-8.92468313 6.1137035 5.29534493c.1276674-.0747032.2689047-.1119856.4239887-.1119856.0521332 0 .1023624.0048464.1508954.0145391l2.8694701-4.95918039c-.0688878-.07965346-.1208479-.1656418-.1560533-.25824197h-9.3923116c-.002354.00643874-.005608.01287748-.0096928.01952393zm.0096928 8.92468313h3.8874514c.0325399-.0956465.0828038-.1849927.1511031-.2679347l-4.5549359-7.87728002v7.62883462c.1139937.0425441.2178792.1107394.3117951.204655.0939504.0938118.162042.1978355.2045863.3117251zm7.3318055-2.5769848 2.4502586 2.1191072c.0409172-.0231933.0829422-.0427172.1266981-.0585025v-7.62883462l-2.7231095 4.71076962c.133033.1583376.199636.3418417.199636.5505123 0 .1091471-.0178969.2115092-.0534832.306948zm-1.6028697-.6138959-5.4171408-4.68639933 4.2333096 7.31704033c.0489138-.0096927.0993507-.0145391.1511031-.0145391.0519601 0 .1023624.0048464.1511031.0145391l1.0277087-1.7731807c-.1363909-.1570915-.2045517-.3405263-.2045517-.5505124.0000692-.1102894.0194547-.2126515.058468-.3069479zm-.2192293 3.1908807h3.8826051c.0039809-.0064734.0072349-.0129468.0099004-.0194201l-2.4504316-2.1191073c-.1275636.0746687-.2689393.1119857-.423781.1119857-.0521678 0-.102397-.0048464-.1511031-.0145391l-1.0230354 1.7731807c.0692686.0824228.1214364.1718036.1558456.2679001zm4.0873645.8964734c-.0940197-.094054-.1621806-.1979739-.2047594-.3119673h-3.8922978c-.0333015.0873384-.0820076.1684111-.1461529.243599l4.5549013 7.8919229v-7.6189341c-.1139591-.042475-.2178793-.1108433-.3116912-.2046205zm-5.0420659.233664-1.0329013 1.7879622c.1332062.1581299.1998092.3417725.1998092.5503046 0 .1092509-.017897.2113707-.0536563.3069479l5.4123983 4.6816222-4.2333096-7.3317179c-.0483253.0096928-.0987968.0147122-.1511031.0147122-.0491215.0001039-.096339-.0033578-.1412372-.0098312zm4.8472069 8.3693937-6.1138073-5.2856523c-.1274944.0747379-.268697.1120203-.4239887.1120203-.0521332 0-.1023624-.0049503-.1508954-.014643l-2.8645199 4.9495569c.0670877.0795496.1174208.1655033.1509993.258242h9.3923116c.0039809-.0065772.0072349-.0130852.0099004-.0195239zm-6.3866929-6.8737019 1.027951-1.7879621c-.0669839-.0780265-.1174208-.1625263-.1511031-.2532572h-3.892367c-.002354.0063003-.005608.0127044-.0096928.0195586l2.4503278 2.1191418c.1274943-.0747378.2686969-.1120548.423781-.1120548.0519601 0 .1021893.0047079.1511031.0145737zm-.949959.535904-2.455278-2.1191073c-.0406057.0231934-.082873.0426134-.1266289.0584333v7.623919l2.7280944-4.7059578c-.1364601-.156953-.2045863-.3404571-.2045863-.5505124-.0000346-.1100124.0193855-.2124092.0583988-.3067748zm-3.47831338-2.2652598c-.09391585-.094054-.16204205-.1979739-.20458631-.3119673h-3.87772402c-.03444389.0923578-.08640396.1783116-.15594946.2582766l4.55005487 7.87728v-7.6189688c-.1139937-.042475-.21787924-.1108433-.31179508-.2046205z" fill="#fff"/></svg>

<svg xmlns="http://www.w3.org/2000/svg" width="32" height="32" viewBox="0 0 32 32">
  <path fill="#FFF" d="M26.9983527,16.2054398 C26.999451,16.1371888 27.0000002,16.0687088 27.0000002,16 C27.0000002,12.9601528 25.9250394,10.3652711 23.7750831,8.21521632 C21.6316001,6.07173877 19.0397928,5 15.9999726,5 C12.9600832,5 10.3652295,6.07173877 8.21516936,8.21521632 C6.07168643,10.3652711 4.99994496,12.9601528 4.99994496,16 C4.99994496,16.1272911 5.00182425,16.2537965 5.00558281,16.3795164 C5.0017996,16.2537887 4.99994496,16.1272894 4.99994496,16 C4.99994496,15.7136837 5.00974157,15.4311061 5.02926554,15.1523363 C5.07084052,15.1541364 5.111377,15.1589828 5.15104805,15.1669793 L9.84230554,7.03149192 C9.81014637,6.99427877 9.78255664,6.95536939 9.75953635,6.91455609 C10.2326119,6.58219937 10.7246229,6.29314837 11.2355694,6.04736849 C11.2626053,6.09198965 11.2852448,6.13906862 11.3037995,6.18867461 L20.6961111,6.18867461 C20.7145619,6.13948402 20.737236,6.09240506 20.764445,6.04736849 C21.2751838,6.29408303 21.7672987,6.58476102 22.2406165,6.91940245 C22.2182886,6.9562002 22.1922912,6.99189021 22.1625553,7.02664556 L26.849001,15.1669793 C26.8889144,15.1589828 26.9296932,15.1541364 26.9708181,15.1523363 C26.9903075,15.43121 27.0000002,15.7136837 27.0000002,16 C27.0000002,16.0687153 26.9994712,16.1372003 26.9984077,16.2054622 Z M26.9699942,16.8671544 C26.9285685,16.8652269 26.8882709,16.8603228 26.8488971,16.85251 L22.1575704,24.9783047 C22.186296,25.0113909 22.2121497,25.0454115 22.2355467,25.08047 C22.7721298,24.7014683 23.2853098,24.2663421 23.7750831,23.7750909 C25.7176548,21.8383731 26.7826166,19.535651 26.9699942,16.8671544 Z M22.2187251,25.0923574 C22.1837247,25.1169696 22.1486263,25.1413432 22.1134296,25.1654783 C22.1486227,25.1413363 22.1837165,25.1169561 22.218711,25.0923377 Z M22.1130909,25.1657105 C21.6771146,25.4646432 21.2260542,25.7269712 20.7594601,25.9525623 C20.734259,25.9105028 20.7132119,25.8665739 20.6960765,25.8210527 L11.3037649,25.8210527 C11.2865256,25.8670932 11.2654439,25.9110913 11.2404851,25.9525623 C10.9854002,25.8301751 10.7349228,25.6967665 10.4890398,25.552332 C12.1262981,26.5174475 13.9632618,27 15.9999726,27 C18.2925482,27 20.3302988,26.3885752 22.1130907,25.1657106 Z M9.76473144,25.0847377 C9.78717842,25.0474815 9.8130476,25.0121055 9.84227092,24.9782354 L5.15104805,16.85251 C5.11173836,16.860434 5.07133146,16.8652377 5.02986148,16.8671602 C5.21667873,19.5356543 6.27844803,21.8383745 8.21516936,23.7750909 C8.70829045,24.268187 9.22481059,24.7047358 9.76473144,25.0847377 Z M16,32 C7.163444,32 0,24.836556 0,16 C0,7.163444 7.163444,0 16,0 C24.836556,0 32,7.163444 32,16 C32,24.836556 24.836556,32 16,32 Z M26.3470895,15.4592842 L21.7971385,7.57220768 L21.7971385,15.2010423 C21.9111322,15.2435864 22.0150177,15.3117817 22.1088643,15.4056973 C22.2028494,15.4995091 22.2710449,15.6035328 22.3135891,15.7174224 L26.1913131,15.7174224 C26.2256878,15.6250991 26.2776132,15.5391108 26.3470895,15.4592842 Z M26.1912439,16.3020323 L22.3135891,16.3020323 C22.2710449,16.4160257 22.2028494,16.5199456 22.1088643,16.6139305 C22.0150177,16.7077768 21.9111322,16.7761106 21.7971385,16.8185163 L21.7971385,24.4375197 L26.3471241,16.5602051 C26.2776132,16.4803093 26.2256878,16.3943209 26.1912439,16.3020323 Z M5.80870129,15.7174224 L9.68645993,15.7174224 C9.72900419,15.6035328 9.79713039,15.4995437 9.89104623,15.4056973 C9.98496208,15.3117817 10.0888476,15.2435518 10.2028413,15.2010423 L10.2028413,7.57220768 L5.65275183,15.4592842 C5.72229733,15.5391108 5.7742574,15.625203 5.80870129,15.7174224 Z M11.2940721,6.79273927 L17.4077756,12.0880842 C17.535443,12.013381 17.6766803,11.9760986 17.8317643,11.9760986 C17.8838975,11.9760986 17.9341267,11.980945 17.9826597,11.9906377 L20.8521298,7.03145731 C20.783242,6.95180385 20.7312819,6.86581551 20.6960765,6.77321534 L11.3037649,6.77321534 C11.3014109,6.77965408 11.2981569,6.78609282 11.2940721,6.79273927 Z M11.3037649,15.7174224 L15.1912163,15.7174224 C15.2237562,15.6217759 15.2740201,15.5324297 15.3423194,15.4494877 L10.7873835,7.57220768 L10.7873835,15.2010423 C10.9013772,15.2435864 11.0052627,15.3117817 11.0991786,15.4056973 C11.193129,15.4995091 11.2612206,15.6035328 11.3037649,15.7174224 Z M18.6355704,13.1404376 L21.085829,15.2595448 C21.1267462,15.2363515 21.1687712,15.2168276 21.2125271,15.2010423 L21.2125271,7.57220768 L18.4894176,12.2829773 C18.6224506,12.4413149 18.6890536,12.624819 18.6890536,12.8334896 C18.6890536,12.9426367 18.6711567,13.0449988 18.6355704,13.1404376 Z M17.0327007,12.5265417 L11.6155599,7.84014237 L15.8488695,15.1571827 C15.8977833,15.14749 15.9482202,15.1426436 15.9999726,15.1426436 C16.0519327,15.1426436 16.102335,15.14749 16.1510757,15.1571827 L17.1787844,13.384002 C17.0423935,13.2269105 16.9742327,13.0434757 16.9742327,12.8334896 C16.9743019,12.7232002 16.9936874,12.6208381 17.0327007,12.5265417 Z M16.8134714,15.7174224 L20.6960765,15.7174224 C20.7000574,15.710949 20.7033114,15.7044756 20.7059769,15.6980023 L18.2555453,13.578895 C18.1279817,13.6535637 17.986606,13.6908807 17.8317643,13.6908807 C17.7795965,13.6908807 17.7293673,13.6860343 17.6806612,13.6763416 L16.6576258,15.4495223 C16.7268944,15.5319451 16.7790622,15.6213259 16.8134714,15.7174224 Z M20.9008359,16.6138958 C20.8068162,16.5198418 20.7386553,16.4159219 20.6960765,16.3019285 L16.8037787,16.3019285 C16.7704772,16.3892669 16.7217711,16.4703396 16.6576258,16.5455275 L21.2125271,24.4374504 L21.2125271,16.8185163 C21.098568,16.7760413 20.9946478,16.707673 20.9008359,16.6138958 Z M15.85877,16.8475598 L14.8258687,18.635522 C14.9590749,18.7936519 15.0256779,18.9772945 15.0256779,19.1858266 C15.0256779,19.2950775 15.0077809,19.3971973 14.9720216,19.4927745 L20.3844199,24.1743967 L16.1511103,16.8426788 C16.102785,16.8523716 16.0523135,16.857391 16.0000072,16.857391 C15.9508857,16.8574949 15.9036682,16.8540332 15.85877,16.8475598 Z M20.7059769,25.2169535 L14.5921696,19.9313012 C14.4646752,20.0060391 14.3234726,20.0433215 14.1681809,20.0433215 C14.1160477,20.0433215 14.0658185,20.0383712 14.0172855,20.0286785 L11.1527656,24.9782354 C11.2198533,25.057785 11.2701864,25.1437387 11.3037649,25.2364774 L20.6960765,25.2364774 C20.7000574,25.2299002 20.7033114,25.2233922 20.7059769,25.2169535 Z M14.319284,18.3432516 L15.347235,16.5552895 C15.2802511,16.477263 15.2298142,16.3927632 15.1961319,16.3020323 L11.3037649,16.3020323 C11.3014109,16.3083326 11.2981569,16.3147367 11.2940721,16.3215909 L13.7443999,18.4407327 C13.8718942,18.3659949 14.0130968,18.3286779 14.1681809,18.3286779 C14.220141,18.3286779 14.2703702,18.3333858 14.319284,18.3432516 Z M13.369325,18.8791556 L10.914047,16.7600483 C10.8734413,16.7832417 10.831174,16.8026617 10.7874181,16.8184816 L10.7874181,24.4424006 L13.5155125,19.7364428 C13.3790524,19.5794898 13.3109262,19.3959857 13.3109262,19.1859304 C13.3108916,19.075918 13.3303117,18.9735212 13.369325,18.8791556 Z M9.89101162,16.6138958 C9.79709577,16.5198418 9.72896957,16.4159219 9.68642531,16.3019285 L5.80870129,16.3019285 C5.7742574,16.3942863 5.72229733,16.4802401 5.65275183,16.5602051 L10.2028067,24.4374851 L10.2028067,16.8185163 C10.088813,16.7760413 9.98492746,16.707673 9.89101162,16.6138958 Z"/>
</svg>
